X:4838
T:Ente La Pola y El Pinu (XA 38)
C:Tradicional
S:Msica Tradicional Asturiana, (C) Tello & Tito. Asturies, 2001.
S:http://pagina.de/MusTradAst <telloytito@asturies.org>
A:Asturies
Z:Mtodu de Xuacu Amieva 38
M:3/8
L:1/8
Q:3/8=52
K:Cm
|: GGG|FEF|G2 G-|G3|GGG|GFE|DEF|G2 F|EFD|E2 E-|E3 :|
|: CCD|E2 E|FEF|G3-|G3|c3|cB~A|GA~G|FE~D|C3-|C3 :|
[K:C]
|: BBB|BAB|~A G2-|G3 :|GGG|FE~D|CEG|
[M:6/8]
[Q:3/8=112]
|C z4 G|
|: c2 B ABA|~G3 E2 G|c2 B ABA|G5 E|F2 ~E DEF|E3 G2 C|D2 ~C B,CD|C5 G :|
|G2 G GGG|G5 c|c2 c ccc|[c6e6]-|[c6e6]|
